icons/Suru/scalable/categories/emoji-activities-symbolic.svg

<svg version="1.1" viewBox="0 0 16 16" xmlns="http://www.w3.org/2000/svg">
 <path d="m7.4629 1a7.5 7.5 0 0 0-7.4629 7.5 7.5 7.5 0 0 0 7.5 7.5 7.5 7.5 0 0 0 7.5-7.5 7.5 7.5 0 0 0-7.5-7.5 7.5 7.5 0 0 0-0.037109 0zm-0.46289 1.0195v5.9805h-2.0215c-0.10723-1.6073-0.72495-3.1438-1.7773-4.375a6.5 6.5 0 0 1 3.7988-1.6055zm1 0a6.5 6.5 0 0 1 3.7988 1.6055 6.5 6.5 0 0 1 0.69336 0.71484c-0.21276-0.25545-0.44407-0.49489-0.69336-0.71484-1.0524 1.2312-1.6701 2.7677-1.7773 4.375h-2.0215v-5.9805zm-4.8047 1.6113c-0.2497 0.22088-0.48239 0.46027-0.69531 0.7168 0.86147 1.0371 1.3531 2.3164 1.457 3.6523h-2.9375a6.5 6.5 0 0 1 1.4805-3.6523 6.5 6.5 0 0 1 0.69531-0.7168zm9.3047 0.7168a6.5 6.5 0 0 1 1.4805 3.6523h-2.9375c0.10396-1.336 0.59556-2.6153 1.457-3.6523zm-11.48 4.6523h2.9375c-0.10396 1.336-0.59556 2.6153-1.457 3.6523a6.5 6.5 0 0 1-1.4805-3.6523zm3.959 0h2.0215v5.9805a6.5 6.5 0 0 1-3.7988-1.6055 6.5 6.5 0 0 1-0.69336-0.71484c0.21276 0.25544 0.44407 0.49489 0.69336 0.71484 1.0524-1.2312 1.6701-2.7677 1.7773-4.375zm3.0215 0h2.0215c0.10723 1.6073 0.72496 3.1438 1.7773 4.375a6.5 6.5 0 0 1-3.7988 1.6055v-5.9805zm3.043 0h2.9375a6.5 6.5 0 0 1-1.4805 3.6523 6.5 6.5 0 0 1-0.69531 0.7168c0.2497-0.22088 0.48239-0.46027 0.69531-0.7168-0.86147-1.0371-1.3531-2.3164-1.457-3.6523z" fill="#808080" fill-rule="evenodd"/>
</svg>

<svg xmlns="http://www.w3.org/2000/svg" height="16" width="16">
    <path d="M7.463 1A7.5 7.5 0 000 8.5 7.5 7.5 0 007.5 16 7.5 7.5 0 0015 8.5 7.5 7.5 0 007.5 1a7.5 7.5 0 00-.037 0zM7 2.02V8H4.979A7.498 7.498 0 003.2 3.625 6.5 6.5 0 017 2.02zm1 0a6.5 6.5 0 013.799 1.605 6.5 6.5 0 01.693.715 6.5 6.5 0 00-.693-.715A7.498 7.498 0 0010.02 8H8V2.02zM3.195 3.63a6.5 6.5 0 00-.695.718A6.482 6.482 0 013.957 8H1.02A6.5 6.5 0 012.5 4.348a6.5 6.5 0 01.695-.717zm9.305.718A6.5 6.5 0 0113.98 8h-2.937A6.482 6.482 0 0112.5 4.348zM1.02 9h2.937A6.482 6.482 0 012.5 12.652 6.5 6.5 0 011.02 9zm3.959 0H7v5.98a6.5 6.5 0 01-3.799-1.605 6.5 6.5 0 01-.693-.715 6.5 6.5 0 00.693.715A7.498 7.498 0 004.98 9zM8 9h2.021a7.498 7.498 0 001.778 4.375A6.5 6.5 0 018 14.98V9zm3.043 0h2.937a6.5 6.5 0 01-1.48 3.652 6.5 6.5 0 01-.695.717 6.5 6.5 0 00.695-.717A6.482 6.482 0 0111.043 9z" fill="gray" fill-rule="evenodd"/>
</svg>
